X: 4683
T: Boyne Hunt, The
R: reel
M: 4/4
K: Dmajor
BAFA DAFA|DAFA BEEB|BAFA DAFA|1 ABde fedB:|2 ABde fdde||
faaf a3 f|gfga beeg|faaf abaf|(3efe de fdde||
faaf a3f|gfga beeg|fgfe dedB|ABde fedB||

